X:1
T:Harald Fryklöf (1882-1919)
T:Davids Psalm 51
T:Botdagen
%%score [ 1 2 3 4 ]
L:1/8
Q:1/4=82
M:4/4
K:Bmin
V:1 treble nm="Sopran"
V:2 treble nm="Alt"
V:3 treble-8 nm="Tenor"
V:4 bass nm="Bas"
V:1
!p! F2 FF B2 B2- |!<(! BB!<)! Bc!>(! d2 B!>)!B |!mf! f2 f2- f^e =ed | d2 c2- ce dc | %4
w: Gud, var mig nå- dig|* ef- ter din god- het, och|ut- plå- * na mi- na|syn- der * ef- ter din|
 d2 BG!>(! F2 c2 | B4-!>)! B z z2 |!mf! z4 BB =c2- | c=c BA ^GG!>(! (=G2!>)! | %8
w: sto- ra barm- här- tig-|het. *|Ty jag kän-|* ner mi- na ö- ver- trä-|
!>(! G)F ^E2- E!>)! z z2 |!mf! z4 BB c2- |!f! c^e f2- ff =ed |!mp! c2 ^B2- B z cc | %12
w: * del- ser *|och min synd,|* min synd * är all- tid|för mig. * Var mig|
!f!!>(! d4!>)! c2 ff | g4 f2 f2- | fe d2- d c2 c |!mf!!p! c3 A B2 B2- | B2 AG F2 !fermata!F2 || %17
w: nå- dig, var mig|nå- dig, ty|* jag kän- * ner min|synd och den står|* all- tid för mig.|
[K:B]!pp! F3 F G2 G2 | F3 F (G2 A2) | B2 A2- A!<(!A AA!<)! | c3 B GG!>(! (G^^F)!>)! | %21
w: Ska- pa i mig,|Gud ett rent *|hjär- ta, * ge mig ett|nytt och sta- digt sin- *|
 G2 z G !>!A2 GF | ^E2 EE!>(! F!>)! E2 E | !>!G2 F2 BD ED |!>(! D3 ^^C C2!>)! z D | %25
w: ne. Du äl- skar ett|upp- rik- tigt hjär- ta, o|ge mig vis- het i mitt|in- ners- ta, o|
!<(! E2 =D2 =G4!<)! |!>(! F4- F3!>)! z ||[K:D]!p! F2 FF B2 B2- |!<(! BB B!<)!c!>(! d2 BB!>)! | %29
w: ge mig vis-|het! *|Gud, var mig nå- dig|* ef- ter din god- het, och|
!mf! f2 f2- f^e =ed | d2 c2- ce dc | d2 B!>(!G F2 c2 | B4-!>)! B z z2 | z8 | z8 | %35
w: ut- plå- * na mi- na|syn- der * ef- ter din|sto- ra barm- här- tig-|het. *|||
!mp! z E GA B2 =cB | B2 ^A2 B4- | B4- B z z2 |] %38
w: ef- ter din sto- ra barm-|här- tig- *||
V:2
!p! D2 DD D2 D2- |!<(! DB!<)! AG!>(! F2 D!>)!G |!mf! F2 G2- GA GF | G4- GE FG | (F2 E)D!>(! D2 F2 | %5
w: Gud, var mig nå- dig|* ef- ter din god- het, och|ut- plå- * na mi- na|syn- * der ef- ter|din * barm- här- tig-|
 D4-!>)! D z z2 |!mp! z2 ^DD (E2 D2 | E)F GF EE!>(! D2-!>)! |!mp!!>(! DD C2- C!>)! z FF | %9
w: het. *|Ty jag kän- *|* ner mi- na ö- ver- trä-|* del- ser * och min|
 G4- GF ^E2- |!f! E^G F2- Fd cB | A2 ^G2- G z z2 |!mp! z2 E^E!>(! F2 F!>)! z |!f! z2 ^AA B2 =AG | %14
w: synd, * min synd,|* min synd * är all- tid|för mig. *|Var mig nå- dig,|ty jag kän- ner jag|
 (F4 ^EF) =ED |!mf!!p! C3 C D2 G2- | G2 F^E C2 !fermata!C2 ||[K:B]!pp! D3 D D2 ^E2 | F3 D (D2 F2) | %19
w: kän- * * ner min|synd och den står|* all- tid för mig.|Ska- pa i mig,|Gud ett rent *|
 F2 F2- F!<(!F FF!<)! | E3 D DC!>(! D2!>)! | D2 z ^E !>!F2 DD | D2 ^^CC!>(! D D2!>)! C | %23
w: hjär- ta, * ge mig ett|nytt och sta- digt sin-|ne. Du äl- skar ett|upp- rik- tigt hjär- ta, o|
 !>!D2 D2 B,B, B,B, |!>(! B,3 A, A,2!>)! z B, |!<(! B,2 B,2 (B,2 C!<)!=D) |!>(! C4- C3!>)! z || %27
w: ge mig vis- het i mitt|in- ners- ta, o|ge mig vis- * *|het! *|
[K:D]!p! D2 DD D2 D2- |!<(! DB A!<)!G!>(! F2 DG!>)! |!mf! F2 G2- GA GF | G4- GE FG | %31
w: Gud, var mig nå- dig|* ef- ter din god- het, och|ut- plå- * na mi- na|syn- * der ef- ter|
 (F2 E)!>(!D D2 F2 | D4-!>)! D z z2 |!mp! z2 CC D2 B, z |!mp! z4 z ^D DD | (E2 D2) =C3 D | %36
w: din * barm- här- tig-|het. *|Var mig nå- dig|ef- ter din|sto- * ra barm-|
 E4- E2 (^DC) | ^D4- D z z2 |] %38
w: här- * tig- *||
V:3
!p! F2 dc B2 B2- |!<(! BG!<)! AB!>(! B2 B!>)!B |!mf! B2 B2- BB BB | B6 B2 | B3 B!>(! (B2 ^A2) | %5
w: Gud, var mig nå- dig|* ef- ter din god- het, och|ut- plå- * na mi- na|syn- der|mi- na syn- *|
!p! F4-!>)! F z BB | =c2 c2 B2 A2- | A2 B=c B4- |!>(!!>(! B^A B2-!>)! B z z2!>)! |!mp! z2 ^AA B4- | %10
w: der * Ty jag|kän- ner mi- na|* ö- ver- trä-|* del- ser *|och min synd,|
!f! Bc (d2 c)f gf | ^e2 f2- f z z2 |!mp! z2 cc!>(! c2!>)! c z |!f! f2 e2 f2 ed | (c2 dc Bc) BA | %15
w: * min synd * är all- tid|för mig. *|Var mig nå- dig,|ty jag kän- ner jag|kän- * * * * ner min|
!mf!!p! ^G3 A =G2 d2- | d2 cB B2 !fermata!^A2 ||[K:B]!pp! d3 B B2 B2 | A3 B (B2 c2) | %19
w: synd och den står|* all- tid för mig.|Ska- pa i mig,|Gud ett rent *|
 d2 c2- c!<(!c FF!<)! | G3 G GG!>(! A2!>)! | ^B2 z c !>!c2 =BA | A2 AA!>(! A B2!>)! A | %23
w: hjär- ta, * ge mig ett|nytt och sta- digt sin-|ne. Du äl- skar ett|upp- rik- tigt hjär- ta, o|
 !>!B2 A2 AA GF |!>(! G3 G G2!>)! z F |!<(! =G2 F2 B4!<)! |!>(! (B2 AG!>)! A3) z || %27
w: ge mig vis- het i mitt|in- ners- ta, o|ge mig vis-|het! * * *|
[K:D]!p! B2 dc B2 B2- |!<(! BB B!<)!B!>(! B2 B!>)!B |!mf! B2 B2- BB BB | B6 B2 | %31
w: Gud, var mig nå- dig|* ef- ter din god- het, och|ut- plå- * na mi- na|syn- der|
 B3!>(! B (B2 ^A2) |!mp! F4-!>)! F z FF | (G2 E2) F2- F z |!p! z2 BB =c2 (BA) | G2 F2 E3 F | %36
w: mi- na syn- *|der * Var mig|nå- * dig *|Var mig nå- dig *|ef- ter din barm-|
 G4 F4 | F4- F z z2 |] %38
w: här- tig-||
V:4
!p! B,,2 B,A, G,2 G,2- |!<(! G,G,!<)! F,E,!>(! B,,2 B,,!>)!E, |!mf! D,2 C,2- C,C, C,D, | %3
w: Gud, var mig nå- dig|* ef- ter din god- het, och|ut- plå- * na mi- na|
 E,4- E,G, F,E, | (D,2 C,)E,!>(! F,2 F,,2 |!p! B,,4-!>)! B,, z B,B, | B,2 A,2 G,2 F,2 | %7
w: syn- * der ef- ter|din * barm- här- tig-|het. * Ty jag|kän- ner mi- na|
 (E,2 ^D,2) (E,2!>(! ^E,2-!>)! |!mp!!>(! E,)F, G,2- G,!>)! z F,F, | F,2 E,2 (^D,=D,) C,2- | %10
w: ö- ver- trä- *|* del- ser * och min|synd, och min * synd|
!f! C,B, ^A,2- A,B, B,B, |!mp! C2 D2- D z CC | (C2 B,2)!>(! ^A,2- A,!>)! z |!f! z2 CC ^D2 CB, | %14
w: * min synd * är all- tid|för mig. * Var mig|nå- * dig, *|ty jag kän- ner jag|
 (^A,2 B,=A, ^G,A,) G,F, |!mf!!p! ^E,3 F, B,,2 B,,2- | B,,2 C,C, F,2 !fermata!F,2 || %17
w: kän- * * * * ner min|synd och den står|* all- tid för mig.|
[K:B]!pp! B,3 A, G,2 G,2 | D,3 B, (G,2 F,2) | (D,E,) F,2- F,!<(!F, D,D,!<)! | %20
w: Ska- pa i mig,|Gud ett rent *|hjär- * ta, * ge mig ett|
 C,3 G, E,E,!>(! D,2!>)! | G,2 z C, !>!F,2 G,D, | A,2 A,A,!>(! D,!>)! G,2 A, | %23
w: nytt och sta- digt sin-|ne. Du äl- skar ett|upp- rik- tigt hjär- ta, o|
 !>!G,2 D,2 G,,G,, C,D, |!>(! E,3 E, E,2!>)! z D, |!<(! C,2 =D,2 E,4!<)! |!>(! F,4-!>)! F,3 z || %27
w: ge mig vis- het i mitt|in- ners- ta, o|ge mig vis-|het! *|
[K:D]!p! B,,2 B,A, G,2 G,2- |!<(! G,G, F,!<)!E,!>(! B,,2 B,,E,!>)! |!mf! D,2 C,2- C,C, C,D, | %30
w: Gud, var mig nå- dig|* ef- ter din god- het, och|ut- plå- * na mi- na|
 E,4- E,G, F,E, | (D,2 C,)!>(!D, F,2 F,,2!>)! |!mp! B,,2 B,,B,, B,,4 | B,,4- B,,B,, B,,B,, | %34
w: syn- * der ef- ter|din * barm- här- tig-|het. Var mig nå-|dig * ef- ter din|
 B,,6 B,,B,, | B,,4 B,,4 | B,,8- | B,,4- B,, z z2 |] %38
w: sto- ra barm-|här- tig-|||

